X: 1
T:BWV 578
C:Johann Sebastian Bach
O:Germany
Z:Transcribed by Frank Nordberg - http://www.musicaviva.com

M:C
L:1/16
Q:1/4=72

K:Gm
G4d4B6A2|G2B2A2G2 ^F2A2D4|G2D2A2D2 B2AG A2D2|G2DG A2DA B2AG ADdc|\
BAGB AG^FA GDGA Bcd=e|=f=edf ed^ce d2A2d2=e2|fgfg Mg3f/g/ agab agf=e|faga ^caga daga ^caga|\
fd^cd gdcd adcd gdcd|A2f2G2=e2 F2A2d2f2|_e2a2 z2 e2 d2g2 z2 d2|cBcd caga Bg^fg A^f=ef|\
g8 z8|z8 Bdcd ^Fdcd|Gdcd ^FdcdB4c4|d4c4 z2 B2 z2 A2|\
z2 D2 GABG A2d2^c2=e2|abag f=ed^c d2 z2 b2 z2|=e2 z2 z2 a2 a8-|a16-|\
a8-agab agf=e|f8 z2 d2g2f2|_e8-e2c2f2e2|d4-dg^fg c4-cBAc|\
BAGB AG^FA GD=E^F GDGA|BGBc dAdc B6A2|G2B2A2G2 ^F2A2D4|G2D2A2D2 B2AG A2D2|\
G2DG A2DA B2AG ADdc|BAGB AG^FA GBcd eBAG|^FABc dAG=F EGAB cGFE|DFGA BdcB Acde fgfe|\
dfed cBAc BFGA BcBc|d=ede Me3d/e/ f_efg fedc|dfef Afef Bfef Afef|dBAB eBAB fBAB eBAB|\
BcdB edce dcde dcBd|cBcd cBAc BABc BAGB|A2f2 z2 _A2 G2e2 z2 G2|F2d2 z2 F2 EGcB =AGFE|\
DEFG ABcA BFGA BcBc|d=ede Me3d/e/ f_efg f2f2|f16-|f16-|\
fefg c3a babc' bagf|edef edcB agab agfe|dcde dcBA gfg_a gfed|cBcd cdec f4-f_agf|\
e8-ecde fg_af|=BcdB G2 z2 c4 g4|e6d2 c2e2d2c2|=B2d2G4c2G2d2G2|\
e2dc d2G2 c2Gc d2Gd|e2dc dGgf edce dc=Bd|cgeg ceG_B =AcAc FACE|Dfdf BdFA GBGB EGB,D|\
Cece Ac=EG ^FAFA DFA,C|B,2G2A,2^F2 G4 z4|GBAG dADc BdcB =fc=Fe|dfed gdGf =egfe aeAg|\
^f4g2a2b8-|b4=a8g4-|g4^f4g4 z4|z2 d2g2a2 baga ^fgfg|\
ag^f=e dcBA Bdcd ^Fdcd|Gdcd ^Fdcd BGFG cGFG|dG^FG cGFG B2g2A2^f2|Hg16|]
V:2
z16|z16|z16|z16|\
z16|D4A4F6=E2|D2F2=E2D2 ^C2=E2A,4|D2A,2=E2A,2 F2=ED E2A,2|\
D2A,D =E2A,E F2ED EA,AG|F=EDF ED^CE DA,D=E FGA=B|c_Bcd cBAc BABc BAGB|A2G2^F2D2G4 z4|\
z2 D2G2A2 BcBc Mc3B/c/|dcd_e dcBA D2 z2 C2 z2|D2 z2 C2 z2 z G^FG z GFG|z G^FG z GFG D4C4|\
B,4 z4 z8|z16|z16|z16|\
z16|z2 A2d2=c2 B8-|B2G2c2B2 A8-|A4G8^F4|\
G2 z2 z4 z8|z16|z16|z16|\
z16|z16|z16|z16|\
B,4F4D6C2|B,2D2C2B,2 A,2C2 z2 F2|F16-|F16-|\
F8 z8|z16|z16|z16|\
z16|z16|z16|z16|\
z8 z2 F2B2A2|G8-G2C2A2G2|F8-F2B,2G2F2|E8-EEDC=B,4|\
C4 z4 z2 C2_A2F2-|F4-FFED EDCE DC=B,D|CG,CD EFEF GECE _AFGA|DEDC =B,2D2 G,8-|\
G,16-|G,8-G,2G2 FEDF|E4 z4 z2 C2=A,2F,2|B,8-B,2B,2G,2E,2|\
A,8-A,2A,2^F,2D,2|G,4 z4 G,B,A,G, DA,D,C|B,2D2A,2D2- D2G2C2=F2-|F2F2D2G2- G2G2=E2A2-|\
A_edc BdAd G_ag^f g=fed|e8d8|c8BdcB ABGA|BcBc d_edc B2d2c2B2|\
A4 z2 D2 D8-|D16-|D8-D2_E2 E2D2|HD16|]
V:3
K:Gm bass

z16|z16|z16|z16|\
z16|z16|z16|z16|\
z16|z16|z16|z8 g4d'4|\
b6a2 g2b2a2g2|^f2a2d4g2d2a2d2|b2ag a2d2 g2dg a2da|b2ag add'c' bagb ag^fa|\
gdga bc'd'=e' =f'=e'd'f' e'd'^c'e'|d'2a2d'2=e'2 f'g'f'g' Mg'3f'/g'/|a'g'a'b' a'g'f'=e' f'a'g'a' ^c'a'g'a'|d'a'g'a' ^c'a'g'a' f'd'^c'd' g'd'c'd'|\
a'd'^c'd' g'd'c'd' f'2=e'd' M^c'3d'|d'=c'd'=e' d'c'ba gfga gf_ed|c'bc'd' c'bag fefg fedc|Bbc'd'e'4 z abc'd'4|\
g4d'4b6a2|gbag ^fg=ef gdef gdga|bc'bc' Mc'3b/c'/ d'c'd'_e' d'c'ba|bd'c'd' ^fd'c'd' gd'c'd' ^fd'c'd'|\
bg^fg c'gfg d'gfg c'gfg|g2b2 c'bgc' b4-bd'c'b|a4-ac'ba g4-gbag|=f4-f2=e2 f2_e2d2c2|\
B4 z4 z2 c'2b2a2|g8f4f4|b2f2c'2f2 d'2c'b c'2f2|b2fb c'2fc' d'2c'b c'ff'e'|\
d'c'bd' c'bac' b2g'2 z2 g2|a2f'2 z2 f2 g2f'2c'2=e'2|f'_e'f'g' f'e'd'f' e'd'e'f' e'd'c'e'|d'c'd'e' d'c'bd' c'bc'd' c'b=ac'|\
bc'd'b c'd'e'c' d'c'bc' d'e'd'e'|f'g'f'g' Mg'3f'/g'/ a'g'a'b' a'g'f'_e'|d'f'e'f' af'e'f' bf'e'f' af'e'f'|d'b'a'b' e'b'a'b' f'b'a'b' e'b'a'b'|\
b'd''c''b' a'g'f'e'd'8-|d'2g2c'2b2 a8-|a2f2b2a2g8-|g2e2_a2g2f4g4-|\
gg=a=b c'd'e'c'_a8|g2=a2=b4c'2 z2 z4|z16|z16|\
z16|z16|z2 g2e2c2 f4 z4|z2 f2d2B2 e4 z4|\
z2 e2c2A2d4 z4|GBAG dADc B2d2^F2d2|g4^f4g4a4|b4=b4c'4^c'4|\
d'4=e'2^f'2g'4=a'2b'2|c''g'=f'_e' c''a'f'a' b'f'e'd' b'g'e'g'|a'e'd'c' a'^f'd'f' gbd'g' ^f'g'=e'f'|g'6^f'2g'4a'2d'2|\
d'4 z2 ^f2 g2 z2 c'2 z2|b2 z2 c'2 z2 b2 z2 a2 z2|g2 z2 a2 z2 g2b2c'2a2|H=b16|]
V:4
K:Gm bass

z16|z16|z16|z16|\
z16|z16|z16|z16|\
z16|z16|z16|z16|\
z16|z16|z16|z16|\
z8 d4a4|f6=e2 d2f2e2d2|^c2=e2A4d2A2=e2A2|f2=ed e2A2 d2Ad =e2Ae|\
f2=ed e2A2 d2G2A4|D4 z4 z8|z16|z16|\
z16|z8 z2 G2g2=f2|_e2 z2 _E2 z2 D2d2d4-|d16-|\
d16-|d8-d4c4-|c4B8A4|B2A2G4F4 z4|\
z16|z16|z16|z16|\
z16|z16|z16|z16|\
B4f4d6c2|B2d2c2B2 A2c2F4|B2F2c2F2 d2cB c2F2|B2FB c2Fc d2cB c2F2|\
d2e2f2F2 B4 z4|c4 z4 F4 z4|B4 z4 E4 z4|_A4 z4 D4G4|\
C4 z4 F4 z4|G16|C2G2c2d2e4f4|g4-ggfg egfg =Bgfg|\
cgfg=Bgfg ec'=bc' fc'bc'|gc'=bc' g=bab c2e2f2g2|c4 z4 z8|z16|\
z16|z16|z16|z16|\
z16|z16|z8g4d'4|b6a2 g2b2a2g2|\
^f2a2d4g2d2a2d2|b2ag a2d2 g2dg a2da|b2ag a2d2 g2e2c2d2|HG16|]

